theme/icons/font-spacing.svg

<svg fill="none" height="24" width="24" xmlns="http://www.w3.org/2000/svg"><g fill="#f4f4f7"><path d="m19 21h2v-18h-2zm-14 0h-2v-18h2z"/><path clip-rule="evenodd" d="m9.464 16.048.489-1.048h4.094l.489 1.048a1 1 0 1 0 1.813-.845l-3.381-7.25a1 1 0 0 0 -.968-.578 1 1 0 0 0 -.967.576l-3.381 7.25a1 1 0 0 0 1.812.846zm2.536-5.438-1.115 2.39h2.23z" fill-rule="evenodd"/></g></svg>

<svg fill="none" height="24" width="24" xmlns="http://www.w3.org/2000/svg">
    <g fill="#f4f4f7">
        <path d="M19 21h2V3h-2zM5 21H3V3h2z"/>
        <path clip-rule="evenodd" d="M9.464 16.048 9.953 15h4.094l.489 1.048a1 1 0 1 0 1.813-.845l-3.381-7.25A1 1 0 0 0 12 7.375a1 1 0 0 0-.967.576l-3.381 7.25a1 1 0 0 0 1.812.846zM12 10.61 10.885 13h2.23z" fill-rule="evenodd"/>
    </g>
</svg>
